packages/icons/svgs/duotone/chat-duotone.svg

<svg width="24" height="24" viewBox="0 0 24 24" fill="none" xmlns="http://www.w3.org/2000/svg">
<path fill-rule="evenodd" clip-rule="evenodd" d="M0 2C0 1.44772 0.447715 1 1 1H23C23.5523 1 24 1.44772 24 2V17C24 17.5523 23.5523 18 23 18H16.4806L12.7809 22.6247C12.5911 22.8619 12.3038 23 12 23C11.6962 23 11.4089 22.8619 11.2191 22.6247L7.51938 18H1C0.447715 18 0 17.5523 0 17V2ZM2 3V16H8C8.30378 16 8.5911 16.1381 8.78087 16.3753L12 20.3992L15.2191 16.3753C15.4089 16.1381 15.6962 16 16 16H22V3H2Z" fill="black"/>
<path opacity="0.5" fill-rule="evenodd" clip-rule="evenodd" d="M6 7C6 6.44772 6.44772 6 7 6H17C17.5523 6 18 6.44772 18 7C18 7.55228 17.5523 8 17 8H7C6.44772 8 6 7.55228 6 7Z" fill="black"/>
<path opacity="0.5" fill-rule="evenodd" clip-rule="evenodd" d="M6 12C6 11.4477 6.44772 11 7 11H13C13.5523 11 14 11.4477 14 12C14 12.5523 13.5523 13 13 13H7C6.44772 13 6 12.5523 6 12Z" fill="black"/>
</svg>

<svg width="24" height="24" viewBox="0 0 24 24" xmlns="http://www.w3.org/2000/svg"><path fill-rule="evenodd" clip-rule="evenodd" d="M0 2a1 1 0 0 1 1-1h22a1 1 0 0 1 1 1v15a1 1 0 0 1-1 1h-6.52l-3.7 4.625a1 1 0 0 1-1.56 0L7.52 18H1a1 1 0 0 1-1-1V2Zm2 1v13h6a1 1 0 0 1 .78.375L12 20.4l3.22-4.024A1 1 0 0 1 16 16h6V3H2Z"/><path opacity=".5" fill-rule="evenodd" clip-rule="evenodd" d="M6 7a1 1 0 0 1 1-1h10a1 1 0 1 1 0 2H7a1 1 0 0 1-1-1Zm0 5a1 1 0 0 1 1-1h6a1 1 0 1 1 0 2H7a1 1 0 0 1-1-1Z"/></svg>
